X: 36
T: Paddy on the Railroad
T: The Merry Blacksmith
O: Ryan 1883
R: reel
Z: 2006 John Chambers <jc:trillian.mit.edu>
M: C
K: D
A2 \
| "D"d2dA BAFA | ABdA BAFA | ABde "(Bm)"f2ed | "Em"Beed "A7"egfe | "D"d2dA BAFA |
| "D"ABdA BAFA | ABde "A7"fdec | "D"dBAF D2 :: fg | "D"a2ag f2fe | d2dA BAFA |
| "D"ABde "(Bm)"f2ed | "Em"Beed "A7"egfe | "D"abag fgfe | d2dA BAFA | ABde "A7"fdec | "D"dBAF D2 :|

%%sep 2 1 500

